src/icons/svg-colors/prod-3.svg

<svg width="136" height="80" viewBox="0 0 136 80" fill="none" xmlns="http://www.w3.org/2000/svg">
<path fill-rule="evenodd" clip-rule="evenodd" d="M71.2415 44.9532L107.047 49.608C109.788 49.9643 111.687 52.5238 111.232 55.2504C110.848 57.5541 108.886 59.263 106.552 59.3269L80.8658 60.0306C80.3137 60.0458 79.8539 59.6105 79.8388 59.0584C79.8237 58.5063 80.259 58.0465 80.811 58.0314L106.497 57.3277C107.875 57.2899 109.033 56.2813 109.259 54.9216C109.528 53.3123 108.407 51.8016 106.789 51.5913L71.4446 46.9965L50.6956 54.0433C50.1727 54.2209 49.6048 53.9409 49.4272 53.418C49.2496 52.895 49.5295 52.3271 50.0525 52.1495L71.2415 44.9532Z" fill="#0BA14B"/>
<path fill-rule="evenodd" clip-rule="evenodd" d="M127.648 46.0038C129.94 44.5712 132.96 45.268 134.392 47.5601C135.738 49.7131 135.214 52.5377 133.185 54.0644L101.856 77.6421C98.9665 79.8164 95.1931 80.4319 91.7627 79.2885L61.4917 69.1981C60.7497 68.9508 59.9404 69.003 59.2363 69.3437L48.4356 74.5699L47.5645 72.7696L58.3652 67.5434C59.5387 66.9756 60.8875 66.8885 62.1242 67.3008L92.3951 77.3911C95.2019 78.3267 98.2891 77.8231 100.653 76.044L131.982 52.4664C133.182 51.5636 133.492 49.8933 132.696 48.6201C131.849 47.2647 130.064 46.8526 128.708 47.6998L101.833 64.4966C100.618 65.2564 99.0881 65.3075 97.8244 64.6305L88.2788 59.5168L89.2233 57.7539L98.7688 62.8676C99.4007 63.2061 100.165 63.1805 100.773 62.8006L127.648 46.0038Z" fill="#0BA14B"/>
<path fill-rule="evenodd" clip-rule="evenodd" d="M122.89 47.6451C121.479 46.3632 119.463 45.9943 117.69 46.6941L106.131 51.257L105.396 49.3967L116.956 44.8337C119.438 43.8541 122.261 44.3705 124.235 46.1653L125.823 47.6087L124.477 49.0886L122.89 47.6451Z" fill="#0BA14B"/>
<path d="M88 17.8225H89.5076V11.3352C90.042 11.23 90.5954 11.1512 91.1679 11.0986C91.7405 11.0329 92.3448 11 92.9809 11C93.6425 11 94.2786 11.0592 94.8893 11.1775C95.5 11.2958 96.0344 11.5127 96.4924 11.8282C96.9504 12.1437 97.313 12.5775 97.5802 13.1296C97.8601 13.6817 98 14.3915 98 15.2592C98 16.061 97.8601 16.7446 97.5802 17.3099C97.313 17.862 96.9504 18.3155 96.4924 18.6704C96.0471 19.0254 95.5382 19.2817 94.9656 19.4394C94.3931 19.5972 93.8079 19.6761 93.2099 19.6761C93.0318 19.6761 92.8028 19.6761 92.5229 19.6761C92.2557 19.6629 92.0522 19.6432 91.9122 19.6169V20.7606H94.9656V22.5549H91.9122V25H89.5076V22.5549H88V20.7606H89.5076V19.6169H88V17.8225ZM93.1908 13.169C92.9364 13.169 92.6947 13.1822 92.4656 13.2085C92.2366 13.2216 92.0522 13.2413 91.9122 13.2676V17.7239C92.014 17.7502 92.1794 17.7765 92.4084 17.8028C92.6374 17.816 92.8028 17.8225 92.9046 17.8225C93.2481 17.8225 93.5725 17.7765 93.8779 17.6845C94.1959 17.5925 94.4695 17.4479 94.6985 17.2507C94.9275 17.0535 95.1056 16.8038 95.2328 16.5014C95.3728 16.1859 95.4427 15.8113 95.4427 15.3775C95.4427 14.5756 95.2328 14.0103 94.813 13.6817C94.3931 13.3399 93.8524 13.169 93.1908 13.169Z" fill="#0BA14B"/>
<path fill-rule="evenodd" clip-rule="evenodd" d="M93 34C101.837 34 109 26.8366 109 18C109 9.16344 101.837 2 93 2C84.1634 2 77 9.16344 77 18C77 26.8366 84.1634 34 93 34ZM93 36C102.941 36 111 27.9411 111 18C111 8.05887 102.941 0 93 0C83.0589 0 75 8.05887 75 18C75 27.9411 83.0589 36 93 36Z" fill="#0BA14B"/>
<path d="M83 18C83 18.5523 82.5523 19 82 19C81.4477 19 81 18.5523 81 18C81 17.4477 81.4477 17 82 17C82.5523 17 83 17.4477 83 18Z" fill="#0BA14B"/>
<path d="M105 18C105 18.5523 104.552 19 104 19C103.448 19 103 18.5523 103 18C103 17.4477 103.448 17 104 17C104.552 17 105 17.4477 105 18Z" fill="#0BA14B"/>
<path d="M0 38.0742L9.5625 36.9141C9.86719 39.3516 10.6875 41.2148 12.0234 42.5039C13.3594 43.793 14.9766 44.4375 16.875 44.4375C18.9141 44.4375 20.625 43.6641 22.0078 42.1172C23.4141 40.5703 24.1172 38.4844 24.1172 35.8594C24.1172 33.375 23.4492 31.4062 22.1133 29.9531C20.7773 28.5 19.1484 27.7734 17.2266 27.7734C15.9609 27.7734 14.4492 28.0195 12.6914 28.5117L13.7812 20.4609C16.4531 20.5312 18.4922 19.957 19.8984 18.7383C21.3047 17.4961 22.0078 15.8555 22.0078 13.8164C22.0078 12.082 21.4922 10.6992 20.4609 9.66797C19.4297 8.63672 18.0586 8.12109 16.3477 8.12109C14.6602 8.12109 13.2188 8.70703 12.0234 9.87891C10.8281 11.0508 10.1016 12.7617 9.84375 15.0117L0.738281 13.4648C1.37109 10.3477 2.32031 7.86328 3.58594 6.01172C4.875 4.13672 6.65625 2.67188 8.92969 1.61719C11.2266 0.539062 13.793 0 16.6289 0C21.4805 0 25.3711 1.54688 28.3008 4.64062C30.7148 7.17188 31.9219 10.0312 31.9219 13.2188C31.9219 17.7422 29.4492 21.3516 24.5039 24.0469C27.457 24.6797 29.8125 26.0977 31.5703 28.3008C33.3516 30.5039 34.2422 33.1641 34.2422 36.2812C34.2422 40.8047 32.5898 44.6602 29.2852 47.8477C25.9805 51.0352 21.8672 52.6289 16.9453 52.6289C12.2812 52.6289 8.41406 51.293 5.34375 48.6211C2.27344 45.9258 0.492188 42.4102 0 38.0742Z" fill="#0BA14B"/>
</svg>

<svg width="136" height="80" viewBox="0 0 136 80" fill="none" xmlns="http://www.w3.org/2000/svg">
    <path fill-rule="evenodd" clip-rule="evenodd" d="M71.242 44.953l35.805 4.655a4.88 4.88 0 0 1-.495 9.719l-25.686.704a1 1 0 1 1-.055-2l25.686-.703a2.88 2.88 0 0 0 .292-5.736l-35.344-4.596-20.75 7.047a1 1 0 0 1-.642-1.893l21.189-7.197z" fill="#0BA14B"/>
    <path fill-rule="evenodd" clip-rule="evenodd" d="M127.648 46.004a4.894 4.894 0 0 1 5.537 8.06l-31.329 23.578a11.001 11.001 0 0 1-10.093 1.647l-30.271-10.09a3 3 0 0 0-2.256.145l-10.8 5.226-.871-1.8 10.8-5.227a5 5 0 0 1 3.76-.242l30.27 10.09a9 9 0 0 0 8.258-1.347l31.329-23.578a2.893 2.893 0 0 0-3.274-4.766l-26.875 16.797a4 4 0 0 1-4.009.133l-9.545-5.113.944-1.763 9.546 5.114a2 2 0 0 0 2.004-.067l26.875-16.797z" fill="#0BA14B"/>
    <path fill-rule="evenodd" clip-rule="evenodd" d="M122.89 47.645a5.002 5.002 0 0 0-5.2-.95l-11.559 4.562-.735-1.86 11.56-4.563a7 7 0 0 1 7.279 1.331l1.588 1.444-1.346 1.48-1.587-1.444z" fill="#0BA14B"/>
    <path d="M88 17.823h1.508v-6.488a16.327 16.327 0 0 1 1.66-.236A15.917 15.917 0 0 1 92.98 11c.662 0 1.298.06 1.908.178.611.118 1.145.335 1.603.65.458.316.821.75 1.088 1.302.28.552.42 1.261.42 2.13 0 .801-.14 1.485-.42 2.05a3.766 3.766 0 0 1-1.088 1.36 4.216 4.216 0 0 1-1.526.77 6.577 6.577 0 0 1-1.756.236h-.687a4.846 4.846 0 0 1-.61-.06v1.145h3.053v1.794h-3.054V25h-2.404v-2.445H88V20.76h1.508v-1.144H88v-1.794zm5.19-4.654c-.254 0-.495.013-.724.04a4.515 4.515 0 0 0-.554.059v4.456c.102.026.267.052.496.079.23.013.395.02.497.02.343 0 .668-.047.973-.139.318-.091.591-.236.82-.433.23-.198.408-.447.535-.75.14-.315.21-.69.21-1.124 0-.801-.21-1.367-.63-1.695-.42-.342-.96-.513-1.622-.513z" fill="#0BA14B"/>
    <path fill-rule="evenodd" clip-rule="evenodd" d="M93 34c8.837 0 16-7.163 16-16S101.837 2 93 2 77 9.163 77 18s7.163 16 16 16zm0 2c9.941 0 18-8.059 18-18S102.941 0 93 0 75 8.059 75 18s8.059 18 18 18z" fill="#0BA14B"/>
    <path d="M83 18a1 1 0 1 1-2 0 1 1 0 0 1 2 0z" fill="#0BA14B"/>
    <path d="M105 18a1 1 0 1 1-2 0 1 1 0 0 1 2 0z" fill="#0BA14B"/>
    <path d="M0 38.074l9.563-1.16c.304 2.438 1.124 4.3 2.46 5.59 1.336 1.289 2.954 1.934 4.852 1.934 2.04 0 3.75-.774 5.133-2.32 1.406-1.548 2.11-3.634 2.11-6.259 0-2.484-.669-4.453-2.005-5.906-1.336-1.453-2.965-2.18-4.886-2.18-1.266 0-2.778.247-4.536.739l1.09-8.051c2.672.07 4.711-.504 6.117-1.723 1.407-1.242 2.11-2.883 2.11-4.922 0-1.734-.516-3.117-1.547-4.148-1.031-1.031-2.402-1.547-4.113-1.547-1.688 0-3.13.586-4.325 1.758-1.195 1.172-1.921 2.883-2.18 5.133L.739 13.465c.633-3.117 1.582-5.602 2.848-7.453 1.289-1.875 3.07-3.34 5.344-4.395C11.227.54 13.793 0 16.629 0 21.48 0 25.37 1.547 28.3 4.64c2.414 2.532 3.62 5.391 3.62 8.579 0 4.523-2.472 8.133-7.417 10.828 2.953.633 5.308 2.05 7.066 4.254 1.782 2.203 2.672 4.863 2.672 7.98 0 4.524-1.652 8.38-4.957 11.567-3.305 3.187-7.418 4.78-12.34 4.78-4.664 0-8.53-1.335-11.601-4.007C2.274 45.926.492 42.411 0 38.074z" fill="#0BA14B"/>
</svg>
